X: 28625
T: Music In The Glen
R: reel
M: 4/4
K: Gmajor
G2 BG EFGC|B,DGB A3B|1 c2 ec B2 dB|BABG AGEF:|2 cdef gbge|dcBA G3 D||
G2 BG EFGC|B,DGB A3B|1 cece BdBd|A3 B AG EF:|2 cdef gbge|dcBA G4||
BGdG e2dc|BGdG BA F2|BGdG eg (3def|gdBG AGE2|
BGdG e2df|g2 fg afdf|g2 fgeg dB|1 cABG AG EF:|2 c2 (3BcB AG EF||

